app/dist/common/images/the-azek-company.svg

<svg height="18" viewBox="0 0 18 18" width="18" xmlns="http://www.w3.org/2000/svg"><path d="m0 0h18v18h-18z" fill="#f0f3fa"/><path d="m14.49 12h-2.15l-2.96-6-1.44 3h2.06l-.62 1.5h-2.25l-1.73 3.5h-2.02l1.7-3.5h-1.44l.7-1.5h1.4l2.76-5.52c.15-.34.52-.48.88-.48.33 0 .66.17.8.48l4.32 8.52z" fill="#9c9fa2"/></svg>

<!-- by TradingView --><svg xmlns="http://www.w3.org/2000/svg" width="18" height="18" viewBox="0 0 18 18"><path fill="#F0F3FA" d="M0 0h18v18H0z"/><path d="M14.49 12h-2.15L9.38 6 7.94 9H10l-.62 1.5H7.13L5.4 14H3.38l1.7-3.5H3.64l.7-1.5h1.4L8.5 3.48c.15-.34.52-.48.88-.48.33 0 .66.17.8.48L14.5 12h-.01Z" fill="#9C9FA2"/></svg>
